!!!!SEGMENT: pl-sa--l-1636--004_anonim--preludium.krn
!!!cenid: 17xx:711
!!!COM: Anonim
!!!COM-rismID: pe30004985
!!!CDT:
!!!CNT:
!!!OTL: Preludium
!!!PDT:
!!!AGN: Secular; Prelude
!!!SMS-siglum: PL-SA
!!!SMS-shelfmark: L 1636
!!!SMS-shelfwork: 004 W
!!!SMS-variant:
!!!SMS-altvar:
!!!NIFC-rismSourceID: 1001076306
!!!NIFC-rismChildID: 1001076306
!!!NIFC-islandoraID:
!!!URL-pdf-islandora:
!!!URL-scan:
!!!ONB-nifc: 1v, skan 0005, s. 3-4
!!!AIN: 1 organ
!!!key:
**kern	**kern
*part1	*part1
*staff2	*staff1
*Iorgan	*Iempty
*I"Organo	*
*I'Org.	*
*clefF4	*clefC1
*k[]	*k[]
*C:	*C:
*M2/2	*M2/2
*met(c|)	*met(c|)
=1	=1
*all\right	*all\right
1ryy	8r
.	8d/L
.	8B/
.	8d/J
.	8c/L
.	16B/L
.	16c/JJ
.	8A/L
.	16B/L
.	16c/JJ
=2	=2
8r	2B/
8G\L	.
8E\	.
8G\J	.
8F\L	2A/
16E\L	.
16F\JJ	.
8D\L	.
16E\L	.
16F\JJ	.
=3	=3
*^	*
*	*2\right	*
2G/	2E\	8r
.	.	8g/L
.	.	8e/
.	.	8g/J
4A/	2D\	8f/L
.	.	16e/L
.	.	16f/JJ
4B/	.	8d/L
.	.	16e/L
.	.	16f/JJ
*v	*v	*
=4	=4
*	*^
*	*	*2\right
8r	2g/	2e\
8B\L	.	.
8A\	.	.
8B\J	.	.
8B\L	2g/	2d\
16A\L	.	.
16B\JJ	.	.
8G\L	.	.
16A\L	.	.
16B\JJ	.	.
*	*v	*v
=5	=5
*^	*
2A/	2F\	8r
!	!	!LO:TX:a:t=P:problem=zapis nieczytelny-prawdopodobna wersja
.	.	8cc\L
.	.	8a\
.	.	8cc\J
[4B/	[4G\	8b\L
.	.	16a\L
.	.	16b\JJ
!!LO:LB:g=original
4B/]	4G\]	8g/L
.	.	16a/L
.	.	16b/JJ
*v	*v	*
=6	=6
*	*^
8r	1cc	2a\
8F\L	.	.
8D\	.	.
8F\J	.	.
8E\L	.	2g\
16D\L	.	.
16E\JJ	.	.
8C\L	.	.
16D\L	.	.
16E\JJ	.	.
*	*v	*v
=7	=7
*^	*
2F/	2D\	8r
.	.	8ff\L
.	.	8dd\
.	.	8ff\J
4G/	2C\	8ee\L
.	.	16dd\L
.	.	16ee\JJ
4A/	.	8cc\L
.	.	16dd\L
.	.	16ee\JJ
*v	*v	*
=8	=8
*	*^
8F\L	4.ff/	8a\L
8G\	.	8b\J
8A\	.	[4cc\
8F\J	8ee/	.
2G\	2dd/	4cc\]
.	.	4b\
*	*v	*v
=9	=9
!LO:TX:a:t=P:||:problem=kreska taktowa 	!LO:TX:a:t=P:||:problem=kreska taktowa 
1C 1GG 1CC	1cc 1g 1e
=||	=||
*-	*-
!!!system-decoration: {s1,s2}
!!!ENC: Marta Lawrence
!!!END: 2020-12-07
!!!ENC: Anastazja Marusiak
!!!END: 2020-06-11
!!!YEC: Copyright 2022 Narodowy Instytut Fryderyka Chopina (https://polishscores.org)
!!!YEM: License CC-BY-4.0 (https://creativecommons.org/licenses/by/4.0)
